symbols/web/no_flash/materialsymbolssharp/no_flash_wght700grad200_48px.svg

<svg xmlns="http://www.w3.org/2000/svg" height="48" width="48"><path d="m42.25 46.6-5.6-5.6v4.2H2.5V17.7h8.6l1.15-1.15-11-10.95L3.7 3.15l41 41Zm-35.2-5.95h25.2v-4.1l-5.7-5.65q.15 3-1.95 5.15-2.1 2.15-5.1 2.15-2.85 0-4.9-2-2.05-2-2.05-4.95 0-2.9 2.125-5.025Q16.8 24.1 19.9 24.2l-1.95-1.95H7.05Zm29.75-9.4-4.65-4.7V21.4h-5.2l-6.5-6.5h4.85l2.55 2.8h8.95Zm2.65-10.5V11.5H38.1V2.7h7.3l-2.6 6.05h2.7Zm-7.3 5.8Zm-7.1 2.9Zm-5.6 5.3q1.5 0 2.525-1T23 31.3q0-1.5-1.025-2.525T19.5 27.75q-1.45 0-2.475 1.025Q16 29.8 16 31.25q0 1.45 1 2.475 1 1.025 2.45 1.025Z"/></svg>

<svg xmlns="http://www.w3.org/2000/svg" height="48" width="48"><path d="M42.25 46.6 36.65 41V45.2H2.5V17.7H11.1L12.25 16.55L1.25 5.6L3.7 3.15L44.7 44.15ZM7.05 40.65H32.25V36.55L26.55 30.9Q26.55 30.9 26.55 30.9Q26.55 30.9 26.55 30.9Q26.7 33.9 24.6 36.05Q22.5 38.2 19.5 38.2Q16.65 38.2 14.6 36.2Q12.55 34.2 12.55 31.25Q12.55 28.35 14.675 26.225Q16.8 24.1 19.9 24.2Q19.9 24.2 19.9 24.2Q19.9 24.2 19.9 24.2L17.95 22.25H7.05ZM36.8 31.25 32.15 26.55V21.4H26.95L20.45 14.9H25.3L27.85 17.7H36.8ZM39.45 20.75V11.5H38.1V2.7H45.4L42.8 8.75H45.5ZM32.15 26.55ZM25.05 29.45ZM19.45 34.75Q20.95 34.75 21.975 33.75Q23 32.75 23 31.3Q23 29.8 21.975 28.775Q20.95 27.75 19.5 27.75Q18.05 27.75 17.025 28.775Q16 29.8 16 31.25Q16 32.7 17 33.725Q18 34.75 19.45 34.75Z"/></svg>
